X: 397
T:Mala se nea
N: Derived from Jos2915-Mala_se_nea.krn
C: Josquin des Prez
%%abc-version 2.0
%%abcx-abcm2ps-target-version 5.9.1 (29 Sep 2008)
%%abc-creator hum2abc beta
%%abcx-conversion-date 2019/02/12 16:15:55
%%abc-edited-by Jesse Rodin
%%abc-edited-by Chris Gage 06-08-2012
%%abcx-initial-encoding-date 2012/06/08/
%%humdrum-veritas 2229546166
%%humdrum-veritas-data 166498086
%%linebreak <none>
%%barnumbers 0
L: 1/4
M: 2/1
Q: 1/2=120
V: 1 clef=treble
V: 2 clef=treble-8
V: 3 clef=treble-8
V: 4 clef=bass
V: 5 clef=bass
K: F
[V:1] z8 | 
[V:2] z8 | 
[V:3] z4A2AB | 
[V:4] z8 | 
[V:5] D,2D,E,F,2F,2 | 
[V:1] z8 | 
[V:2] z8 | 
[V:3] c2c2c2c2 | 
[V:4] z8 | 
[V:5] F,2F,2E,4 | 
[V:1] z4A2AB | 
[V:2] d2def2f2 | 
[V:3] B2AGF4- | 
[V:4] z8 | 
[V:5] D,8 | 
[V:1] c2c2c2c2 | 
[V:2] f2f2e4 | 
[V:3] F4z4 | 
[V:4] A,2A,B,C2C2 | 
[V:5] z8 | 
[V:1] B3A/G/F4- | 
[V:2] d8 | 
[V:3] z8 | 
[V:4] G,2G,2B,2A,G, | 
[V:5] z8 | 
[V:1] F8 | 
[V:2] z8 | 
[V:3] z4A2AB | 
[V:4] F,4F,2F,F, | 
[V:5] D,2D,E,F,2D,2 | 
[V:1] z8 | 
[V:2] z4d2de | 
[V:3] c2A2B2G2 | 
[V:4] G,2E,2F,E,D,C, | 
[V:5] E,2C,2B,,4 | 
[V:1] A2ABc2A2 | 
[V:2] f2d2e2c2 | 
[V:3] F4z4 | 
[V:4] D,2D,2C,2F,2 | 
[V:5] z8 | 
[V:1] B2G2F4 | 
[V:2] B4z4 | 
[V:3] z4A2AB | 
[V:4] G,2E,2F,2D,2 | 
[V:5] z4F,2F,F, | 
[V:1] z8 | 
[V:2] z4d2de | 
[V:3] c2A2B2G2 | 
[V:4] E,2C,2B,,4 | 
[V:5] G,2E,2F,E,D,C, | 
[V:1] A2ABc2A2 | 
[V:2] f2d2e2c2 | 
[V:3] F4z4 | 
[V:4] z8 | 
[V:5] D,2D,2C,2F,2 | 
[V:1] B2G2F4 | 
[V:2] B4z4 | 
[V:3] z8 | 
[V:4] z4D,2D,E, | 
[V:5] G,2_E,2F,4 | 
[V:1] z8 | 
[V:2] z8 | 
[V:3] A2ABc2c2 | 
[V:4] F,2F,2F,2F,2 | 
[V:5] z4A,,2A,,B,, | 
[V:1] z8 | 
[V:2] z8 | 
[V:3] c2c2B3A/G/ | 
[V:4] E,4D,4- | 
[V:5] C,2C,2G,,2G,,2 | 
[V:1] z4A2AB | 
[V:2] d2def2f2 | 
[V:3] F8- | 
[V:4] D,4z4 | 
[V:5] B,,2A,,G,,F,,4 | 
[V:1] c2c2c2c2 | 
[V:2] f2f2e4 | 
[V:3] F4z4 | 
[V:4] A,2A,B,C2C2 | 
[V:5] z8 | 
[V:1] B3A/G/F4- | 
[V:2] d8 | 
[V:3] z8 | 
[V:4] G,2G,2B,3A,/G,/ | 
[V:5] z8 | 
[V:1] F8 | 
[V:2] z8 | 
[V:3] z4A2AB | 
[V:4] F,4F,2F,F, | 
[V:5] D,2D,E,F,2D,2 | 
[V:1] z8 | 
[V:2] z4d2de | 
[V:3] c2A2B2G2 | 
[V:4] G,2E,2F,E,D,C, | 
[V:5] _E,2C,2B,,4 | 
[V:1] A2ABc2A2 | 
[V:2] f2d2e2c2 | 
[V:3] F4z4 | 
[V:4] D,2D,2C,2z2 | 
[V:5] z8 | 
[V:1] B2G2F2A2 | 
[V:2] B4f2ff | 
[V:3] z4A2AB | 
[V:4] z4F,2F,D, | 
[V:5] z8 | 
[V:1] G2F4E2 | 
[V:2] e2c2d2c2 | 
[V:3] c2A2B2G2 | 
[V:4] E,2F,2B,,2C,2 | 
[V:5] z8 | 
[V:1] F4c4 | 
[V:2] A2B2c2A2 | 
[V:3] F4z2A2 | 
[V:4] F,2F,2E,2E,2 | 
[V:5] z2D,2C,2C,2 | 
[V:1] B2B2F3G | 
[V:2] B2B2BA/G/F2- | 
[V:3] G2G2D3E | 
[V:4] D,4z4 | 
[V:5] G,,3A,,B,,2B,,2 | 
[V:1] A2F4E2 | 
[V:2] FGABc2C2 | 
[V:3] F2F2C4 | 
[V:4] z2A,2G,2G,2 | 
[V:5] F,,4z4 | 
[V:1] F2F2C2F2- | 
[V:2] F3GA2A2 | 
[V:3] z4z2F2 | 
[V:4] D,3E,F,2F,2 | 
[V:5] z8 | 
[V:1] F2E2F4 | 
[V:2] G2G2D3E | 
[V:3] G2G2F4 | 
[V:4] C,4z4 | 
[V:5] z4z2F,2 | 
[V:1] C8- | 
[V:2] F2F2C4 | 
[V:3] z4z2C2 | 
[V:4] z2F,2G,2G,2 | 
[V:5] F,,2F,4E,2 | 
[V:1] C8- | 
[V:2] z4z2C2 | 
[V:3] F2F2C4 | 
[V:4] F,2F,2E,2E,2 | 
[V:5] F,2A,2G,2G,2 | 
[V:1] C8 | 
[V:2] F2F2C4 | 
[V:3] z8 | 
[V:4] F,2A,2G,2G,2 | 
[V:5] F,2F,2E,2E,2 | 
[V:1] z4F3E | 
[V:2] F3EF2G2 | 
[V:3] z8 | 
[V:4] F,4z4 | 
[V:5] F,4z4 | 
[V:1] F2G2A2d2- | 
[V:2] A2B2A2G2 | 
[V:3] F3EF2G2 | 
[V:4] z8 | 
[V:5] z8 | 
[V:1] d2c4B2 | 
[V:2] z8 | 
[V:3] A3BcAd2- | 
[V:4] z8 | 
[V:5] C3B,A,2G,2 | 
[V:1] c4z4 | 
[V:2] z2c2d4 | 
[V:3] d2c4=B2 | 
[V:4] z4z2F,2 | 
[V:5] F,2E,2D,4 | 
[V:1] z8 | 
[V:2] e4c2f2- | 
[V:3] c8- | 
[V:4] G,4A,2F,2 | 
[V:5] C,8- | 
[V:1] z8 | 
[V:2] f2ede4 | 
[V:3] c8 | 
[V:4] A,3B,G,4 | 
[V:5] C,8 | 
[V:1] z8 | 
[V:2] f4c2cd | 
[V:3] z8 | 
[V:4] F,8- | 
[V:5] F,,8- | 
[V:1] c2cdc3B | 
[V:2] c3BA2G2 | 
[V:3] z8 | 
[V:4] F,8- | 
[V:5] F,,8 | 
[V:1] A2G2F4 | 
[V:2] F4z4 | 
[V:3] z4c2cd | 
[V:4] F,8 | 
[V:5] z8 | 
[V:1] z8 | 
[V:2] f2fed3c | 
[V:3] c3BA2G2 | 
[V:4] z8 | 
[V:5] F,2F,G,F,3E, | 
[V:1] z8 | 
[V:2] B2A2B2B2 | 
[V:3] F8 | 
[V:4] z2F,,2F,4 | 
[V:5] D,2C,2B,,2D,2 | 
[V:1] c4B2B2 | 
[V:2] c2A2B2B2- | 
[V:3] z2A2G2G2 | 
[V:4] E,4D,4- | 
[V:5] C,2C,2G,,3A,, | 
[V:1] F3GA2F2- | 
[V:2] BA/G/F3GAB | 
[V:3] D3EF2F2 | 
[V:4] D,4z2A,2 | 
[V:5] B,,2B,,2F,,4 | 
[V:1] FEEDF4 | 
[V:2] c2C2F3G | 
[V:3] C4z4 | 
[V:4] G,2G,2D,3E, | 
[V:5] z8 | 
[V:1] z2F4E2 | 
[V:2] A2A2G2G2 | 
[V:3] z2F2G2G2 | 
[V:4] F,2F,2C,4 | 
[V:5] z8 | 
[V:1] F4C4- | 
[V:2] D3EF2F2 | 
[V:3] F8 | 
[V:4] z4z2F,2 | 
[V:5] z2F,2F,,2F,2- | 
[V:1] C4z4 | 
[V:2] C4c2cc | 
[V:3] z8 | 
[V:4] G,2G,2F,4 | 
[V:5] F,2E,2F,4 | 
[V:1] z8 | 
[V:2] d2fedcd2- | 
[V:3] D2DDD2D2 | 
[V:4] F,2F,F,G,2G,2 | 
[V:5] B,,2B,,B,,B,,2B,,2 | 
[V:1] z4G2GG | 
[V:2] d2c4=B2 | 
[V:3] E2F2G3F | 
[V:4] C,2C,2D,4 | 
[V:5] A,,2A,,2G,,4 | 
[V:1] G2G2A2B2 | 
[V:2] c8 | 
[V:3] EDFEF4- | 
[V:4] C,8- | 
[V:5] C,4F,,4- | 
[V:1] c3BAGBA | 
[V:2] c2ccc2c2 | 
[V:3] F4z4 | 
[V:4] C,4F,2F,F, | 
[V:5] F,,8 | 
[V:1] B8 | 
[V:2] d2fedcd2- | 
[V:3] D2DDD2D2 | 
[V:4] F,2F,2G,2G,2 | 
[V:5] B,,2B,,B,,B,,2B,,2 | 
[V:1] z4G2GG | 
[V:2] d2c4=B2 | 
[V:3] E2F2G3F | 
[V:4] C,4D,4 | 
[V:5] A,,2A,,2G,,4 | 
[V:1] G2G2A2B2 | 
[V:2] c8- | 
[V:3] EDFEF2G2 | 
[V:4] C,8- | 
[V:5] C,4F,,4 | 
[V:1] c3BA2G2- | 
[V:2] c8- | 
[V:3] A3G/F/F2G2 | 
[V:4] C,8- | 
[V:5] z2F,,2F,,2E,,2 | 
[V:1] G2F4E2 | 
[V:2] c8- | 
[V:3] A3BG4 | 
[V:4] C,8- | 
[V:5] F,,4C,4 | 
[V:1] F8 |]  
[V:2] c8 |]  
[V:3] F8 |]  
[V:4] C,8 |]  
[V:5] F,,8 |]  



